X:1
T:Title
%%score { ( 1 3 ) | ( 2 4 ) }
L:1/8
Q:1/4=100
M:4/4
K:Eb
V:1 treble nm="Grand Piano"
V:3 treble 
V:2 bass 
V:4 bass 
V:1
 B>=A c>B GEDE | A2 A2 A4 | [FA]>[=EG] [DB]>[DA] [DF]D_EF | G2 c2 B4 | B>=A c>B GE[DF][EG] | %5
w: Haldor~Lillenas * * * * * * *|||||
 [EA]2 [EB]2 [Ec]4 | c>c c>c c=AFA | [=Ac]2 [Ae]2 [Fd]4 | [Ge]>[Gd] [Ge]>[Gd] [Ge][GB][Gc][Ge] | %9
w: ||||
 [Ad]2 [Ad]2 z4 | [Ad]>[A_d] [A=d]>[A_d] [A=d][AB][Ac][Ad] | [Gc]2 [B,EG]2 [B,GB]4 | %12
w: |||
 [=Ec]>[EG] [_E_G]>[=E=G] [Ec][GB][FA][EG] | z4 c4 | [=Ac]>[Ac] [Ac]>[Ac] cAFA | z4 B2 z2 | %16
w: ||||
 [Ge]>[Gd] [Ge]>[Gd] [Ge][GB][Gc][Ge] | [Ad]2 [Ad]2 z4 | [Ad]>[A_d] [A=d]>[A_d] [A=d][AB][Ac][Ad] | %19
w: |||
 [Gc]2 [EG]2 [GB]4 | [Ge]>[Ge] [Ge]>[Ge] [Ge][GB]AG | [EA]2 [EB]2 [Ec]4 | %22
w: |||
 [Ec]>[CEe] [D_Gd]>[EGc] [E=GB][Ge][G,E][CFA] | [B,EG]2 [A,DF]2 [G,E]4 |] %24
w: ||
V:2
 [E,G,E]>[E,_G,E] [E,A,E]>[E,=G,E] [E,B,E][E,G,B,][_G,A,B,][E,=G,C] | [F,B,D]2 [F,B,D]2 [F,B,D]4 | %2
 [B,,B,]>[B,,B,] [B,,B,]>[B,,B,] [B,,B,][A,B,][G,B,][F,B,D] | [E,B,E]2 [E,A,E]2 [E,G,E]4 | %4
 [E,G,E]>[E,_G,E] [E,A,E]>[E,=G,E] [E,B,E][E,G,][B,,B,][E,B,] | [C,A,]2 [B,,G,]2 [A,,A,]4 | %6
 [A,E]>[A,E] [G,B,=E]>[G,B,E] [F,=A,F][F,CF][F,_E][F,CF] | [F,F]2 [F,F]2 z2 A2 | %8
 [E,B,]>[E,B,] [E,B,]>[E,B,] [E,B,][E,B,][E,B,][E,B,] | [F,B,]2 [F,B,]2 [B,,B,]4 | %10
 [B,,B,]>[B,,B,] [B,,B,]>[B,,B,] [B,,B,][B,,B,][B,,B,][B,,B,] | [E,B,]2 E,2 E,E,D,_D, | %12
 [C,C]>[C,C] [C,C]>[C,C] [C,G,][C,C][C,C][C,C] | [F,C]2 [E,E]2 [A,E]2 [G,=E]2 | %14
 [F,F]>[F,F] [F,F]>[F,F] [F,EF][F,EF][F,E][F,CF] | F,2 F,2 z2 A2 | %16
 [E,B,]>[E,B,] [E,B,]>[E,B,] [E,B,][E,B,][E,B,][E,B,] | [F,B,]2 [F,B,]2 [B,,B,]4 | %18
 [B,,B,]>[B,,B,] [B,,B,]>[B,,B,] [B,,B,][B,,B,][B,,B,][B,,B,] | [E,B,]2 [E,B,]2 [E,E]4 | %20
 [E,B,]>[E,B,] [E,B,]>[E,B,] [E,B,][E,_D][E,C][E,B,E] | [C,A,]2 [B,,G,]2 [A,,A,]4 | %22
 [A,,A,]>A,, =A,,>A,, B,,[B,,B,]D,F,, | B,,2 B,,2 E,4 |] %24
V:3
 x8 | x8 | x8 | x8 | x8 | x8 | x8 | z4 B2 z2 | x8 | z z/ =E,/ z z/ D,/ [Ad]4 | x8 | x8 | x8 | %13
 [FA]2 [GB]2 A2 B2 | x8 | [E=Ac]2 [EAe]2 [Ed]4 | x8 | z z/ =E,/ z z/ D,/ [Ad]4 | x8 | x8 | x8 | %21
 x8 | x8 | x8 |] %24
V:4
 x8 | x8 | x8 | x8 | x8 | x8 | x8 | z4 B,,4 | x8 | x8 | x8 | x8 | x8 | x8 | x8 | z4 B,,4 | x8 | %17
 x8 | x8 | x8 | x8 | x8 | x8 | x8 |] %24

